view/frontend/web/svg/flags/pf.svg

<svg width="24" height="24" viewbox="0 0 20 15" viewBox="0 0 20 15" fill="none" xmlns="http://www.w3.org/2000/svg">
<g clip-path="url(#clip0_270_60825)">
<rect width="20" height="15" fill="white"/>
<path fill-rule="evenodd" clip-rule="evenodd" d="M0 0V15H20V0H0Z" fill="#F7FCFF"/>
<mask id="mask0_270_60825" style="mask-type:luminance" maskUnits="userSpaceOnUse" x="0" y="0" width="20" height="15">
<path fill-rule="evenodd" clip-rule="evenodd" d="M0 0V15H20V0H0Z" fill="white"/>
</mask>
<g mask="url(#mask0_270_60825)">
<path fill-rule="evenodd" clip-rule="evenodd" d="M0 0V3.75H20V0H0Z" fill="#BF2714"/>
<path fill-rule="evenodd" clip-rule="evenodd" d="M0 11.25V15H20V11.25H0Z" fill="#BF2714"/>
<mask id="mask1_270_60825" style="mask-type:luminance" maskUnits="userSpaceOnUse" x="6" y="3" width="8" height="9">
<path fill-rule="evenodd" clip-rule="evenodd" d="M10 11.25C12.0711 11.25 13.75 9.57107 13.75 7.5C13.75 5.42893 12.0711 3.75 10 3.75C7.92893 3.75 6.25 5.42893 6.25 7.5C6.25 9.57107 7.92893 11.25 10 11.25Z" fill="white"/>
</mask>
<g mask="url(#mask1_270_60825)">
<path fill-rule="evenodd" clip-rule="evenodd" d="M6.59289 8.60299C6.55868 8.49583 6.67443 8.40279 6.77173 8.45926L7.00529 8.59479C7.04013 8.61501 7.08266 8.61688 7.11914 8.5998L7.69567 8.32985C7.73609 8.31093 7.78358 8.31539 7.81976 8.3415L8.44257 8.791L9.30348 8.32748C9.33666 8.30962 9.37619 8.30796 9.41075 8.32297L10.0591 8.60464C10.0919 8.61888 10.1293 8.61815 10.1615 8.60266L10.7431 8.32265C10.7742 8.3077 10.8101 8.30647 10.8421 8.31925L11.5617 8.60671C11.5942 8.61966 11.6306 8.61822 11.6619 8.60273L12.2193 8.32695C12.2546 8.30951 12.296 8.30999 12.3309 8.32823L12.8422 8.59598C12.8792 8.61536 12.9235 8.61463 12.9598 8.59404L13.2257 8.44341C13.3205 8.38972 13.4331 8.47669 13.4052 8.58197L13.3496 8.791H6.65291L6.59289 8.60299Z" fill="#5277B9"/>
<path fill-rule="evenodd" clip-rule="evenodd" d="M6.59055 9.34417C6.55734 9.23634 6.67474 9.14446 6.77142 9.20261L6.98391 9.33042C7.01953 9.35184 7.06356 9.35382 7.10096 9.33567L7.64923 9.06959C7.69061 9.04951 7.73973 9.0542 7.77656 9.08175L8.37403 9.5287L9.20132 9.06703C9.2353 9.04807 9.27624 9.04631 9.31171 9.06229L9.93031 9.34082C9.96397 9.35597 10.0027 9.3552 10.0357 9.33873L10.5905 9.06192C10.6223 9.04602 10.6595 9.04472 10.6924 9.05833L11.38 9.34301C11.4133 9.35681 11.451 9.35528 11.4831 9.33882L12.0142 9.0665C12.0503 9.04797 12.0933 9.04848 12.129 9.06785L12.615 9.33164C12.6528 9.3522 12.6987 9.35143 12.7359 9.32961L12.9797 9.18645C13.074 9.1311 13.1882 9.21711 13.161 9.32302L13.1083 9.5287H6.64739L6.59055 9.34417Z" fill="#5277B9"/>
<path fill-rule="evenodd" clip-rule="evenodd" d="M6.7135 9.83599C6.68029 9.72817 6.79769 9.63628 6.89437 9.69444L7.10686 9.82224C7.14248 9.84366 7.18652 9.84564 7.22391 9.82749L7.77218 9.56141C7.81356 9.54133 7.86268 9.54602 7.89951 9.57357L8.49698 10.0205L9.32427 9.55885C9.35825 9.53989 9.39919 9.53813 9.43467 9.55411L10.0533 9.83264C10.0869 9.84779 10.1256 9.84703 10.1586 9.83055L10.7134 9.55374C10.7453 9.53784 10.7825 9.53654 10.8154 9.55015L11.503 9.83483C11.5363 9.84863 11.574 9.8471 11.6061 9.83064L12.1372 9.55832C12.1733 9.5398 12.2162 9.5403 12.2519 9.55967L12.7379 9.82346C12.7758 9.84402 12.8217 9.84325 12.8588 9.82143L13.1026 9.67828C13.1969 9.62292 13.3111 9.70893 13.284 9.81484L13.2313 10.0205H6.77034L6.7135 9.83599Z" fill="#5277B9"/>
<path fill-rule="evenodd" clip-rule="evenodd" d="M7.4512 10.3278C7.41799 10.22 7.5354 10.1281 7.63208 10.1862L7.84456 10.314C7.88019 10.3355 7.92422 10.3374 7.96162 10.3193L8.50989 10.0532C8.55126 10.0331 8.60039 10.0378 8.63722 10.0654L9.23469 10.5123L10.062 10.0506C10.096 10.0317 10.1369 10.0299 10.1724 10.0459L10.791 10.3244C10.8246 10.3396 10.8633 10.3388 10.8963 10.3223L11.4511 10.0455C11.483 10.0296 11.5202 10.0283 11.5531 10.0419L12.2407 10.3266C12.274 10.3404 12.3117 10.3389 12.3438 10.3224L12.8749 10.0501C12.911 10.0316 12.9539 10.0321 12.9896 10.0515L13.4756 10.3153C13.5135 10.3358 13.5594 10.335 13.5965 10.3132L13.8403 10.1701C13.9346 10.1147 14.0489 10.2007 14.0217 10.3066L13.969 10.5123H7.50804L7.4512 10.3278Z" fill="#5277B9"/>
<path fill-rule="evenodd" clip-rule="evenodd" d="M6.4676 10.9425C6.43438 10.8347 6.55179 10.7428 6.64847 10.801L6.86096 10.9288C6.89658 10.9502 6.94061 10.9522 6.97801 10.934L7.52628 10.6679C7.56766 10.6479 7.61678 10.6526 7.65361 10.6801L8.25108 11.1271L9.07837 10.6654C9.11234 10.6464 9.15329 10.6447 9.18876 10.6606L9.80736 10.9392C9.84101 10.9543 9.8797 10.9536 9.91273 10.9371L10.4675 10.6603C10.4994 10.6444 10.5366 10.6431 10.5694 10.6567L11.2571 10.9414C11.2904 10.9552 11.3281 10.9536 11.3602 10.9372L11.8913 10.6649C11.9274 10.6463 11.9703 10.6468 12.006 10.6662L12.492 10.93C12.5299 10.9506 12.5758 10.9498 12.6129 10.928L12.8567 10.7848C12.951 10.7295 13.0652 10.8155 13.0381 10.9214L12.9853 11.1271H6.52443L6.4676 10.9425Z" fill="#5277B9"/>
<path d="M7.917 5.90363H8.542L8.52752 8.37369C8.63245 8.70626 8.78214 8.8362 9.01407 8.8362V9.4612C8.48637 9.4612 8.11302 9.13714 7.917 8.46772V5.90363Z" fill="#FF0000"/>
<path d="M12.1419 5.90363H11.5169L11.5314 8.37369C11.4265 8.70626 11.2768 8.8362 11.0449 8.8362V9.4612C11.5726 9.4612 11.9459 9.13714 12.1419 8.46772V5.90363Z" fill="#FF0000"/>
<path fill-rule="evenodd" clip-rule="evenodd" d="M10.4529 4.31789C10.4529 4.31789 9.41614 4.04678 9.41614 4.73424C9.41614 5.42171 9.41614 6.89809 9.41614 6.89809L10.6249 7.25705V5.48842C10.6249 5.48842 10.0205 5.11913 10.0205 4.83034C10.0205 4.54155 10.4529 4.31789 10.4529 4.31789Z" fill="#FF0000"/>
<path d="M8.70854 8.05669L9.10272 7.55298" stroke="black" stroke-width="0.625"/>
<path d="M9.06799 8.04007L8.6903 7.53336" stroke="black" stroke-width="0.625"/>
<path d="M9.27411 8.05669L9.66829 7.55298" stroke="black" stroke-width="0.625"/>
<path d="M9.63357 8.04007L9.25587 7.53336" stroke="black" stroke-width="0.625"/>
<path d="M9.8151 8.05669L10.2093 7.55298" stroke="black" stroke-width="0.625"/>
<path d="M10.1746 8.04007L9.79686 7.53336" stroke="black" stroke-width="0.625"/>
<path d="M10.3807 8.05669L10.7749 7.55298" stroke="black" stroke-width="0.625"/>
<path d="M10.7401 8.04007L10.3624 7.53336" stroke="black" stroke-width="0.625"/>
<path d="M10.9462 8.05669L11.3404 7.55298" stroke="black" stroke-width="0.625"/>
<path d="M11.3057 8.04007L10.928 7.53336" stroke="black" stroke-width="0.625"/>
<path fill-rule="evenodd" clip-rule="evenodd" d="M8.40899 4.43426L9.15703 5.89568L9.24913 4.43426L9.15703 4.14639L8.40899 4.43426ZM8.03424 5.68139L7.49531 5.10996L8.03424 4.46774L9.16703 6.27858V6.73886L8.62234 6.27858V5.68139H8.03424ZM6.84776 6.12164L7.83079 6.59224L7.90759 5.86517L7.08915 5.16586L6.84776 6.12164ZM7.88038 7.32851L6.58732 7.19624V6.2843L7.88038 6.78168V7.32851ZM6.55229 8.22429L6.39882 7.44886L7.85633 7.52154V8.22429H6.55229ZM8.60448 6.95018V6.5125L9.14957 6.95018L9.09041 7.18128L8.60448 6.95018ZM13.6754 7.44886L13.5219 8.22429H12.2179V7.52154L13.6754 7.44886ZM12.1938 7.32851L13.4869 7.19624V6.2843L12.1938 6.78168V7.32851ZM13.2264 6.12164L12.2434 6.59224L12.1666 5.86517L12.985 5.16586L13.2264 6.12164ZM12.0399 5.68139L12.5789 5.10996L12.0399 4.46774L10.9071 6.27858V6.73886L11.4518 6.27858V5.68139H12.0399ZM11.6652 4.43426L10.9171 5.89568L10.8251 4.43426L10.9171 4.14639L11.6652 4.43426ZM11.4697 6.95018V6.5125L10.9246 6.95018L10.9838 7.18128L11.4697 6.95018Z" fill="#FA8F21"/>
</g>
</g>
</g>
<defs>
<clipPath id="clip0_270_60825">
<rect width="20" height="15" fill="white"/>
</clipPath>
</defs>
</svg>

<svg width="24" height="24" viewbox="0 0 20 15" fill="none" xmlns="http://www.w3.org/2000/svg">
  <mask id="a" maskUnits="userSpaceOnUse" x="0" y="0" width="20" height="15">
    <path fill="#fff" d="M0 0h20v15H0z"/>
  </mask>
  <g mask="url(#a)">
    <path fill-rule="evenodd" clip-rule="evenodd" d="M0 0v15h20V0H0z" fill="#F7FCFF"/>
    <mask id="b" maskUnits="userSpaceOnUse" x="0" y="0" width="20" height="15">
      <path fill-rule="evenodd" clip-rule="evenodd" d="M0 0v15h20V0H0z" fill="#fff"/>
    </mask>
    <g mask="url(#b)">
      <path fill-rule="evenodd" clip-rule="evenodd" d="M0 0v3.75h20V0H0zm0 11.25V15h20v-3.75H0z" fill="#BF2714"/>
      <mask id="c" maskUnits="userSpaceOnUse" x="6" y="3" width="8" height="9">
        <path fill-rule="evenodd" clip-rule="evenodd" d="M10 11.25a3.75 3.75 0 100-7.5 3.75 3.75 0 000 7.5z" fill="#fff"/>
      </mask>
      <g mask="url(#c)">
        <path fill-rule="evenodd" clip-rule="evenodd" d="M6.593 8.603a.123.123 0 01.179-.144l.233.136c.035.02.078.022.114.005l.577-.27a.123.123 0 01.124.011l.623.45.86-.464a.123.123 0 01.108-.004l.648.282c.033.014.07.013.103-.002l.581-.28a.123.123 0 01.1-.004l.719.288a.123.123 0 00.1-.004l.557-.276a.123.123 0 01.112.001l.511.268a.12.12 0 00.118-.002l.266-.15a.123.123 0 01.18.138l-.056.209H6.653l-.06-.188zm-.003.741a.123.123 0 01.181-.141l.213.127c.036.022.08.024.117.006l.548-.266a.123.123 0 01.128.012l.597.447.827-.462a.123.123 0 01.11-.005l.62.279a.123.123 0 00.105-.002l.555-.277a.123.123 0 01.101-.004l.688.285a.123.123 0 00.103-.004l.531-.273a.123.123 0 01.115.002l.486.264c.038.02.084.02.12-.002l.245-.144a.123.123 0 01.181.137l-.053.206h-6.46l-.057-.185zm.123.492a.123.123 0 01.181-.142l.213.128a.12.12 0 00.117.005l.548-.266a.123.123 0 01.128.013l.597.447.827-.462a.123.123 0 01.11-.005l.62.279a.123.123 0 00.105-.002l.554-.277a.123.123 0 01.102-.004l.688.285a.123.123 0 00.103-.004l.531-.273a.123.123 0 01.115.002l.486.263a.12.12 0 00.12-.002l.245-.143a.123.123 0 01.181.137l-.053.206h-6.46l-.058-.185zm.738.492a.123.123 0 01.181-.142l.213.128c.035.021.08.023.117.005l.548-.266a.123.123 0 01.127.012l.598.447.827-.461a.123.123 0 01.11-.005l.619.278a.123.123 0 00.105-.002l.555-.276a.123.123 0 01.102-.004l.688.285a.123.123 0 00.103-.005l.53-.272a.123.123 0 01.116.002l.486.263c.037.02.083.02.12-.002l.244-.143a.123.123 0 01.182.137l-.053.205H7.508l-.057-.184zm-.983.615a.123.123 0 01.18-.142l.213.128c.036.021.08.023.117.005l.548-.266a.123.123 0 01.128.012l.597.447.827-.462a.123.123 0 01.11-.004l.62.278a.123.123 0 00.105-.002l.554-.277a.123.123 0 01.102-.003l.688.284a.123.123 0 00.103-.004l.531-.272a.123.123 0 01.115.001l.486.264c.038.02.084.02.12-.002l.245-.143a.123.123 0 01.181.136l-.053.206h-6.46l-.057-.184z" fill="#5277B9"/>
        <path d="M7.917 5.904h.625l-.014 2.47c.104.332.254.462.486.462v.625c-.528 0-.901-.324-1.097-.993V5.904zm4.225 0h-.625l.014 2.47c-.104.332-.254.462-.486.462v.625c.528 0 .9-.324 1.097-.993V5.904z" fill="red"/>
        <path fill-rule="evenodd" clip-rule="evenodd" d="M10.453 4.318s-1.037-.271-1.037.416v2.164l1.209.359V5.488s-.604-.369-.604-.658c0-.288.432-.512.432-.512z" fill="red"/>
        <path d="M8.709 8.057l.394-.504m-.035.487l-.378-.507m.584.524l.394-.504m-.034.487l-.378-.507m.559.524l.394-.504m-.034.487l-.378-.507m.583.524l.395-.504m-.035.487l-.378-.507m.584.524l.394-.504m-.034.487l-.378-.507" stroke="#000" stroke-width=".625"/>
        <path fill-rule="evenodd" clip-rule="evenodd" d="M8.409 4.434l.748 1.462.092-1.462-.092-.288-.748.288zm-.375 1.247l-.539-.571.54-.642 1.132 1.81v.46l-.545-.46v-.597h-.588zm-1.186.44l.983.471.077-.727-.819-.7-.241.957zM7.88 7.33l-1.293-.133v-.912l1.293.498v.547zm-1.328.895L6.4 7.45l1.457.073v.702H6.552zM8.604 6.95v-.438l.546.438-.06.231-.486-.23zm5.071.499l-.153.775h-1.304v-.702l1.457-.073zm-1.481-.12l1.293-.133v-.912l-1.293.498v.547zm1.032-1.207l-.983.47-.076-.727.818-.7.241.957zm-1.186-.44l.539-.572-.54-.642-1.132 1.81v.46l.545-.46v-.597h.588zm-.375-1.248l-.748 1.462-.092-1.462.092-.288.748.288zM11.47 6.95v-.438l-.545.438.059.231.486-.23z" fill="#FA8F21"/>
      </g>
    </g>
  </g>
</svg>
